Numix-GalliumOS/16/mimetypes/application-x-osm+xml.svg

<?xml version="1.0" encoding="UTF-8" standalone="no"?>
<svg
   xmlns:dc="http://purl.org/dc/elements/1.1/"
   xmlns:cc="http://creativecommons.org/ns#"
   xmlns:rdf="http://www.w3.org/1999/02/22-rdf-syntax-ns#"
   xmlns:svg="http://www.w3.org/2000/svg"
   xmlns="http://www.w3.org/2000/svg"
   xmlns:sodipodi="http://sodipodi.sourceforge.net/DTD/sodipodi-0.dtd"
   xmlns:inkscape="http://www.inkscape.org/namespaces/inkscape"
   width="16"
   height="16"
   viewBox="0 0 16 16"
   id="svg2"
   version="1.1"
   inkscape:version="0.91 r13725"
   sodipodi:docname="application-x-osm+xml.svg">
  <metadata
     id="metadata30">
    <rdf:RDF>
      <cc:Work
         rdf:about="">
        <dc:format>image/svg+xml</dc:format>
        <dc:type
           rdf:resource="http://purl.org/dc/dcmitype/StillImage" />
        <dc:title></dc:title>
      </cc:Work>
    </rdf:RDF>
  </metadata>
  <defs
     id="defs28" />
  <sodipodi:namedview
     pagecolor="#ffffff"
     bordercolor="#666666"
     borderopacity="1"
     objecttolerance="10"
     gridtolerance="10"
     guidetolerance="10"
     inkscape:pageopacity="0"
     inkscape:pageshadow="2"
     inkscape:window-width="1366"
     inkscape:window-height="713"
     id="namedview26"
     showgrid="true"
     inkscape:zoom="22.627417"
     inkscape:cx="3.5692894"
     inkscape:cy="6.3889304"
     inkscape:window-x="0"
     inkscape:window-y="28"
     inkscape:window-maximized="1"
     inkscape:current-layer="svg2">
    <inkscape:grid
       type="xygrid"
       id="grid4146" />
  </sodipodi:namedview>
  <path
     style="fill:#dcdcdc;fill-opacity:1"
     d="M 2.667969,-4.4634e-4 C 2.324219,-4.4634e-4 2,0.33781166 2,0.6964464 L 2,15.303108 C 2,15.641365 2.34375,16 2.667969,16 l 10.664062,0 C 13.65625,16 14,15.641365 14,15.303108 L 14,3.9995535 10,-4.4634e-4 z"
     id="path4-9"
     inkscape:connector-curvature="0"
     sodipodi:nodetypes="ssssssccs" />
  <path
     style="fill:#000000;fill-opacity:0.19599998"
     d="m 10.583223,3.3315845 0.0154,0.01953 0.04005,-0.01953 z m 0.02978,0.667969 3.387,3.664062 0,-3.664062 z"
     id="path6-9"
     inkscape:connector-curvature="0"
     sodipodi:nodetypes="cccccccc" />
  <path
     style="fill:#ffffff;fill-opacity:0.39200003"
     d="m 10,-4.4634e-4 3.996396,3.99999984 -3.383784,0 C 10.313513,3.9995535 10,3.6824365 10,3.3833375 z"
     id="path8-0"
     inkscape:connector-curvature="0"
     sodipodi:nodetypes="ccssc" />
  <path
     style="fill:#888888;fill-opacity:1;fill-rule:evenodd;stroke:none;stroke-width:1px;stroke-linecap:butt;stroke-linejoin:miter;stroke-opacity:1"
     d="m 8,5.0000007 c -1.6568545,0 -3,1.3431455 -3,3 C 5,9.6568547 7,13 8,13 c 1,0 3,-3.3431453 3,-4.9999993 0,-1.6568545 -1.343146,-3 -3,-3 z m 0,1.333333 c 0.920475,0 1.6666665,0.746192 1.6666665,1.666667 0,0.9204745 -0.7461915,1.6666665 -1.6666665,1.6666665 -0.920475,0 -1.666667,-0.746192 -1.666667,-1.6666665 0,-0.920475 0.746192,-1.666667 1.666667,-1.666667 z"
     id="path3338"
     inkscape:connector-curvature="0"
     sodipodi:nodetypes="sszsssssss" />
</svg>

<svg xmlns="http://www.w3.org/2000/svg" viewBox="0 0 16 16">
 <path d="m 2.668 0 c -0.344 0 -0.668 0.338 -0.668 0.697 l 0 14.607 c 0 0.338 0.344 0.697 0.668 0.697 l 10.664 0 c 0.324 0 0.668 -0.359 0.668 -0.697 l 0 -11.304 -4 -4 z" style="fill:#dcdcdc;fill-opacity:1"/>
 <path d="m 10.583 3.332 0.015 0.02 0.04 -0.02 z m 0.03 0.668 3.387 3.664 0 -3.664 z" style="fill:#000;fill-opacity:0.196"/>
 <path d="m 10 0 3.996 4 -3.384 0 c -0.299 0 -0.613 -0.317 -0.613 -0.616 z" style="fill:#fff;fill-opacity:0.392"/>
 <path d="m 8 5 c -1.657 0 -3 1.343 -3 3 c 0 1.657 2 5 3 5 c 1 0 3 -3.343 3 -5 0 -1.657 -1.343 -3 -3 -3 z m 0 1.333 c 0.92 0 1.667 0.746 1.667 1.667 0 0.92 -0.746 1.667 -1.667 1.667 -0.92 0 -1.667 -0.746 -1.667 -1.667 0 -0.92 0.746 -1.667 1.667 -1.667 z" style="fill:#888;fill-opacity:1;stroke:none;fill-rule:evenodd"/>
</svg>
